assets/guide-bus-icon.svg

<svg width="150" height="150" viewBox="0 0 150 150" fill="none" xmlns="http://www.w3.org/2000/svg">
<circle cx="75" cy="75" r="75" fill="#FFFFFF"/>
<path d="M108.057 50.9129H104.631V40.7228C104.606 40.1609 104.418 39.6185 104.09 39.162C103.763 38.7055 103.311 38.3544 102.788 38.1518C102.788 38.1518 93.2577 35 74.4993 35C55.7409 35 46.2134 38.1518 46.2134 38.1518C45.6907 38.3544 45.238 38.7053 44.9105 39.1618C44.5829 39.6184 44.3947 40.1607 44.3687 40.7228V50.9129H40.946C40.4305 50.914 39.9363 51.1201 39.5717 51.4861C39.207 51.8521 39.0015 52.3482 39 52.866V67.8002C39.0011 68.3182 39.2065 68.8147 39.5712 69.181C39.9359 69.5473 40.4303 69.7536 40.946 69.7547H44.3687V104.83C44.3703 105.347 44.5757 105.843 44.94 106.209C45.3044 106.575 45.798 106.781 46.3132 106.783H50.539V112.962C50.591 113.546 50.8691 114.086 51.3136 114.466C51.7581 114.846 52.3334 115.036 52.9157 114.994H57.3352C57.9176 115.036 58.493 114.847 58.9376 114.466C59.3821 114.086 59.6602 113.546 59.7119 112.962V106.783H89.68V112.962C89.7319 113.546 90.0101 114.086 90.4546 114.466C90.8991 114.846 91.4744 115.036 92.0567 114.994H96.4747C97.0574 115.036 97.6332 114.847 98.0782 114.467C98.5232 114.087 98.8019 113.546 98.8543 112.962V106.783H102.687C103.202 106.781 103.696 106.575 104.06 106.209C104.424 105.843 104.63 105.347 104.631 104.83V69.7547H108.057C108.572 69.7529 109.066 69.5464 109.43 69.1801C109.794 68.8139 109.999 68.3178 110 67.8002V52.866C109.999 52.3487 109.794 51.8529 109.43 51.487C109.065 51.121 108.572 50.9146 108.057 50.9129ZM53.2688 97.1672C52.459 97.1672 51.6673 96.926 50.994 96.4741C50.3206 96.0222 49.7958 95.3799 49.4858 94.6285C49.1759 93.877 49.0948 93.0501 49.2528 92.2523C49.4108 91.4546 49.8008 90.7218 50.3735 90.1466C50.9461 89.5715 51.6757 89.1798 52.47 89.0211C53.2643 88.8624 54.0876 88.9439 54.8358 89.2552C55.584 89.5664 56.2235 90.0935 56.6735 90.7699C57.1234 91.4462 57.3635 92.2413 57.3635 93.0547C57.3634 94.1453 56.932 95.1913 56.1641 95.9626C55.3962 96.7338 54.3548 97.1671 53.2688 97.1672ZM96.05 97.1672C95.2402 97.1669 94.4487 96.9255 93.7755 96.4734C93.1024 96.0213 92.5778 95.3789 92.2681 94.6274C91.9584 93.8759 91.8775 93.0491 92.0357 92.2514C92.1939 91.4538 92.5839 90.7211 93.1567 90.1461C93.7294 89.5711 94.459 89.1796 95.2532 89.021C96.0475 88.8625 96.8707 88.944 97.6188 89.2553C98.367 89.5666 99.0064 90.0937 99.4562 90.77C99.9061 91.4463 100.146 92.2413 100.146 93.0547C100.146 93.5949 100.04 94.1298 99.8346 94.629C99.6288 95.1281 99.3271 95.5815 98.9466 95.9635C98.5662 96.3454 98.1146 96.6483 97.6176 96.8548C97.1206 97.0614 96.5879 97.1675 96.05 97.1672ZM100.897 65.485V80.2067C100.866 81.0647 100.56 81.8896 100.024 82.5581C99.4872 83.2265 98.7498 83.7026 97.9215 83.9152C90.171 85.1033 82.3395 85.6787 74.4993 85.6362C66.6598 85.6793 58.8293 85.0978 51.0814 83.8972C50.2529 83.6908 49.5139 83.2189 48.9762 82.553C48.4385 81.8872 48.1314 81.0635 48.1013 80.2067V49.4943C48.1326 48.6368 48.4394 47.8125 48.9757 47.1446C49.5121 46.4767 50.2492 46.0011 51.077 45.7888C58.7216 44.5886 66.4506 44.013 74.1878 44.0677C82.1307 44.0364 90.0642 44.6173 97.9186 45.8052C98.7465 46.012 99.4849 46.4838 100.022 47.1494C100.56 47.8149 100.867 48.638 100.897 49.4943V65.485Z" fill="#00152B"/>
</svg>

<svg xmlns="http://www.w3.org/2000/svg" width="150" height="150" fill="none" viewBox="0 0 150 150"><circle cx="75" cy="75" r="75" fill="#FFF"/><path fill="#00152B" d="M108.057 50.913h-3.426v-10.19a2.9 2.9 0 0 0-1.843-2.571S93.258 35 74.499 35c-18.758 0-28.286 3.152-28.286 3.152a2.9 2.9 0 0 0-1.303 1.01 2.9 2.9 0 0 0-.541 1.56v10.19h-3.423a1.95 1.95 0 0 0-1.374.574c-.365.366-.57.862-.572 1.38V67.8c.001.518.206 1.015.571 1.381s.86.573 1.375.574h3.423v35.075c.001.517.207 1.013.571 1.379s.858.572 1.373.574h4.226v6.179a2.24 2.24 0 0 0 .775 1.504c.444.38 1.02.57 1.602.528h4.42a2.22 2.22 0 0 0 1.602-.528c.444-.38.722-.92.774-1.504v-6.179H89.68v6.179a2.24 2.24 0 0 0 .775 1.504c.444.38 1.02.57 1.602.528h4.418a2.22 2.22 0 0 0 1.603-.527c.445-.38.724-.921.776-1.505v-6.179h3.833a1.95 1.95 0 0 0 1.373-.574c.364-.366.57-.862.571-1.379V69.755h3.426a1.95 1.95 0 0 0 1.373-.575c.364-.366.569-.862.57-1.38V52.866a1.96 1.96 0 0 0-.57-1.379 1.95 1.95 0 0 0-1.373-.574M53.269 97.167c-.81 0-1.602-.241-2.275-.693a4.1 4.1 0 0 1-1.508-1.846 4.13 4.13 0 0 1 .888-4.481 4.078 4.078 0 0 1 4.462-.891 4.1 4.1 0 0 1 1.837 1.514 4.125 4.125 0 0 1-.509 5.193 4.09 4.09 0 0 1-2.895 1.204m42.781 0c-.81 0-1.601-.242-2.275-.694a4.1 4.1 0 0 1-1.507-1.846 4.13 4.13 0 0 1 .889-4.48 4.079 4.079 0 0 1 4.462-.89 4.1 4.1 0 0 1 1.837 1.513 4.125 4.125 0 0 1-1.838 6.085 4.1 4.1 0 0 1-1.568.312m4.847-31.682v14.722a4 4 0 0 1-.873 2.351 3.96 3.96 0 0 1-2.103 1.357A149 149 0 0 1 74.5 85.636c-7.84.043-15.67-.538-23.418-1.739a3.93 3.93 0 0 1-2.105-1.344 3.96 3.96 0 0 1-.875-2.346V49.494a4 4 0 0 1 .875-2.35 3.96 3.96 0 0 1 2.101-1.355 142.5 142.5 0 0 1 23.11-1.721c7.944-.032 15.877.55 23.732 1.737a3.93 3.93 0 0 1 2.103 1.344 3.95 3.95 0 0 1 .875 2.345z"/></svg>
